Codeartpro/images/main/logo-2.svg

<svg width="184" height="41" viewBox="0 0 184 41" fill="none" xmlns="http://www.w3.org/2000/svg">
<g opacity="0.6">
<path d="M90.9566 29.7752C94.0591 29.7215 97.0195 28.4659 99.2136 26.2733C101.408 24.0806 102.664 21.1222 102.718 18.0218C102.631 11.5313 97.3861 6.2902 90.9566 6.26843C84.4618 6.2902 79.1693 11.5792 79.1954 18.0218C79.1736 24.4905 84.4662 29.6838 90.9566 29.7752ZM90.9566 12.7937C93.6878 12.698 96.0749 15.0835 96.1838 18.0175C96.0749 20.934 93.7357 23.3674 90.9566 23.2412C88.0686 23.3631 85.7294 20.934 85.7294 18.0175C85.7294 15.0878 88.0686 12.698 90.9566 12.7937Z" fill="white"/>
<path d="M171.716 15.6712H166.228V20.8949H171.716C175.693 20.8253 178.925 24.064 179.034 27.9469C178.93 32.0388 175.693 35.2776 171.716 35.2601H12.2865C11.3218 35.2736 10.3641 35.0937 9.47015 34.7309C8.57618 34.3682 7.76407 33.83 7.08182 33.1482C6.39957 32.4664 5.86103 31.6548 5.49804 30.7614C5.13504 29.8681 4.95497 28.911 4.96845 27.9469C4.94232 24.0596 8.17883 20.8253 12.2865 20.8949H17.5137V15.6712H12.2865C5.39534 15.7844 -0.101928 21.278 0.00261582 27.9469C-0.0312144 29.5683 0.263402 31.1797 0.86875 32.6844C1.4741 34.189 2.37768 35.5558 3.52515 36.7025C4.67263 37.8492 6.04031 38.7522 7.54595 39.3571C9.05159 39.9621 10.6641 40.2565 12.2865 40.2227H171.716C178.481 40.3141 183.974 34.8248 184 27.9469C183.974 21.278 178.481 15.7844 171.716 15.6712Z" fill="white"/>
<path d="M34.5024 29.7752C36.4931 29.6838 37.9916 29.3138 40.248 28.2081L37.3774 22.462C36.2143 23.1803 35.6524 23.3674 34.5024 23.2456C31.671 23.3674 29.371 21.0298 29.2752 18.0218C29.371 14.9964 31.671 12.698 34.5024 12.7981C35.5566 12.7023 36.1185 12.8416 37.3774 13.3205L40.2523 7.83558C38.2268 6.70813 36.6369 6.28588 34.5024 6.26411C31.3888 6.28239 28.4079 7.52656 26.2062 9.72679C24.0045 11.927 22.7595 14.9059 22.7412 18.0175C22.8196 24.3512 28.1557 29.6838 34.5024 29.7752ZM73.7064 17.2383C73.7761 14.4784 75.0829 12.7938 77.3654 12.7938C77.5658 12.7894 77.849 12.8373 78.1495 12.7938V6.26411C77.6137 6.33376 77.3306 6.28588 76.8427 6.26411C74.457 6.26216 72.1457 7.09368 70.3087 8.61479C67.9696 10.874 67.2203 12.8808 67.1724 17.2339V29.2485H73.7064V17.2383ZM111.604 16.7159C111.569 14.2433 112.88 12.698 115.001 12.7981C117.188 12.7023 118.504 14.2477 118.399 16.7159V29.2528H124.933V17.4995C125.055 14.6221 124.637 12.9809 123.626 11.2354C122.74 9.7334 121.48 8.48641 119.969 7.61595C118.457 6.74548 116.746 6.28124 115.001 6.26847C108.994 6.29023 105.017 10.7347 105.07 17.4995V29.2528H111.604V16.7159ZM159.955 29.7752C160.717 29.6838 161.136 29.6403 162.042 29.514V22.9844C161.65 23.3239 161.371 23.3674 160.735 23.2456C158.653 23.3674 157.856 22.2008 157.86 19.3278V13.0593H162.042V6.79084H157.86V0H151.326V19.3234C151.3 23.3196 151.958 25.5179 153.678 27.159C155.098 28.8436 157.298 29.6838 159.955 29.7752ZM53.059 29.7752C59.5407 29.6838 64.7897 24.4427 64.8202 18.0218C64.8087 14.9082 63.5659 11.9253 61.3627 9.72362C59.1595 7.52191 56.1747 6.27993 53.059 6.26847C49.9482 6.29574 46.9725 7.54279 44.7727 9.74109C42.5729 11.9394 41.3251 14.9131 41.2978 18.0218C41.3283 24.4905 46.6208 29.6838 53.059 29.7752ZM53.059 12.7938C55.8468 12.698 58.2339 15.0835 58.2862 18.0175C58.2295 20.9341 55.8904 23.3674 53.059 23.2412C50.2276 23.3631 47.884 20.9341 47.8318 18.0175C47.8884 15.0878 50.2276 12.698 53.059 12.7938ZM139.83 29.7752C142.688 29.6838 144.94 29.218 148.194 27.6857L146.364 21.1561C143.908 22.6231 141.473 23.3718 139.308 23.2456C138.994 23.3674 138.759 23.3239 138.262 23.2456L149.501 12.5369C148.028 10.269 147.279 9.42446 145.842 8.35795C143.827 7.01731 141.466 6.29131 139.046 6.26847C137.516 6.27573 136.002 6.58659 134.593 7.18301C133.184 7.77944 131.907 8.64956 130.837 9.7429C129.767 10.8363 128.924 12.1311 128.359 13.5522C127.793 14.9734 127.516 16.4926 127.542 18.0218C127.473 24.582 132.904 29.6838 139.83 29.7752ZM134.081 18.0218C134.028 15.0878 136.324 12.698 139.051 12.7981C139.931 12.7023 140.401 12.8416 141.403 13.3205L134.342 20.1113C134.124 19.0143 134.028 18.5921 134.081 18.0218Z" fill="white"/>
</g>
</svg>

<svg width="184" height="41" fill="none" xmlns="http://www.w3.org/2000/svg"><g opacity=".6" fill="#fff"><path d="M90.957 29.775a11.974 11.974 0 008.257-3.502 11.959 11.959 0 003.504-8.251c-.087-6.49-5.332-11.732-11.761-11.754-6.495.022-11.788 5.311-11.762 11.754-.021 6.469 5.271 11.662 11.762 11.753zm0-16.981c2.73-.096 5.118 2.29 5.227 5.223-.11 2.917-2.448 5.35-5.227 5.224-2.888.122-5.228-2.307-5.228-5.224 0-2.93 2.34-5.319 5.228-5.223z"/><path d="M171.716 15.671h-5.488v5.224h5.488c3.977-.07 7.209 3.169 7.318 7.052-.104 4.092-3.341 7.33-7.318 7.313H12.286a7.22 7.22 0 01-6.788-4.499 7.209 7.209 0 01-.53-2.814c-.026-3.887 3.21-7.122 7.319-7.052h5.227V15.67h-5.227C5.394 15.784-.102 21.278.002 27.947a12.02 12.02 0 007.543 11.41c1.506.605 3.118.9 4.74.866h159.43c6.765.091 12.258-5.398 12.284-12.276-.026-6.669-5.519-12.163-12.284-12.276z"/><path d="M34.502 29.775c1.991-.091 3.49-.461 5.746-1.567l-2.87-5.746c-1.164.718-1.726.905-2.876.784-2.831.121-5.131-2.216-5.227-5.224.096-3.026 2.396-5.324 5.227-5.224 1.055-.096 1.616.044 2.875.522l2.875-5.484c-2.025-1.128-3.615-1.55-5.75-1.572a11.835 11.835 0 00-8.296 3.463 11.819 11.819 0 00-3.465 8.29c.079 6.334 5.415 11.667 11.761 11.758zm39.204-12.537c.07-2.76 1.377-4.444 3.66-4.444.2-.005.483.043.784 0v-6.53c-.536.07-.82.022-1.307 0a10.232 10.232 0 00-6.534 2.35c-2.34 2.26-3.089 4.267-3.137 8.62v12.014h6.534v-12.01zm37.898-.522c-.035-2.473 1.276-4.018 3.397-3.918 2.187-.096 3.503 1.45 3.398 3.918v12.537h6.534V17.5c.122-2.878-.296-4.52-1.307-6.265a10.098 10.098 0 00-8.625-4.967c-6.007.022-9.984 4.467-9.931 11.232v11.753h6.534V16.716zm48.351 13.06c.762-.092 1.181-.136 2.087-.262v-6.53c-.392.34-.671.383-1.307.262-2.082.121-2.879-1.045-2.875-3.918v-6.269h4.182V6.791h-4.182V0h-6.534v19.323c-.026 3.997.632 6.195 2.352 7.836 1.42 1.685 3.62 2.525 6.277 2.616zm-106.896 0c6.482-.092 11.73-5.333 11.761-11.754a11.793 11.793 0 00-3.457-8.298 11.809 11.809 0 00-8.304-3.456 11.87 11.87 0 00-8.286 3.473 11.854 11.854 0 00-3.475 8.28c.03 6.47 5.323 11.663 11.761 11.754zm0-16.982c2.788-.096 5.175 2.29 5.227 5.223-.056 2.917-2.396 5.35-5.227 5.224-2.831.122-5.175-2.307-5.227-5.224.056-2.93 2.396-5.319 5.227-5.223zm86.771 16.981c2.858-.091 5.11-.557 8.364-2.09l-1.83-6.529c-2.456 1.467-4.891 2.216-7.056 2.09-.314.121-.549.078-1.046 0l11.239-10.71c-1.473-2.267-2.222-3.112-3.659-4.178a12.481 12.481 0 00-6.796-2.09 11.566 11.566 0 00-10.687 7.284 11.548 11.548 0 00-.817 4.47c-.069 6.56 5.362 11.662 12.288 11.753zm-5.749-11.753c-.053-2.934 2.243-5.324 4.97-5.224.88-.096 1.35.044 2.352.522l-7.061 6.791c-.218-1.097-.314-1.519-.261-2.09z"/></g></svg>
